icon-themes/sifr_svg/cmd/sc_resetattributes.svg

<svg xmlns="http://www.w3.org/2000/svg" viewBox="0 0 16 16">
 <path
     style="fill:#555753"
     d="M 3 3 L 3 5 L 9.4980469 5 C 9.9262069 5.0000158 10.105549 5.2810019 9.9804688 5.7324219 L 9.6289062 7 L 4.390625 7 C 2.552105 7 1.2596256 8.3426044 0.88476562 9.7402344 C 0.69732562 10.439045 0.7089037 11.217101 1.1210938 11.894531 C 1.5332838 12.571951 2.3749331 13 3.2832031 13 L 9 13 L 9 11 C 9 9.8919997 9.892 9 11 9 L 11.150391 9 L 11.908203 6.2675781 C 12.342883 4.6987981 11.178237 3 9.4980469 3 L 3 3 z M 4.390625 9 L 9.0761719 9 L 8.5214844 11 L 3.2832031 11 C 2.8853331 11 2.8742381 10.928099 2.8300781 10.855469 C 2.7858781 10.782869 2.7356063 10.560956 2.8164062 10.259766 C 2.9779663 9.6573949 3.545915 9 4.390625 9 z M 11 10 C 10.446 10 10 10.446 10 11 L 10 15 C 10 15.554 10.446 16 11 16 L 15 16 C 15.554 16 16 15.554 16 15 L 16 11 C 16 10.446 15.554 10 15 10 L 11 10 z M 11 11 L 12 11 L 13 12 L 14 11 L 15 11 L 15 12 L 14 13 L 15 14 L 15 15 L 14 15 L 13 14 L 12 15 L 11 15 L 11 14 L 12 13 L 11 12 L 11 11 z M 1 14 L 1 16 L 9 16 L 9 14 L 1 14 z "
     />
 </svg>

<?xml version="1.0" encoding="UTF-8" standalone="no"?>
<svg
   xmlns:dc="http://purl.org/dc/elements/1.1/"
   xmlns:cc="http://creativecommons.org/ns#"
   xmlns:rdf="http://www.w3.org/1999/02/22-rdf-syntax-ns#"
   xmlns:svg="http://www.w3.org/2000/svg"
   xmlns="http://www.w3.org/2000/svg"
   xmlns:sodipodi="http://sodipodi.sourceforge.net/DTD/sodipodi-0.dtd"
   xmlns:inkscape="http://www.inkscape.org/namespaces/inkscape"
   viewBox="0 0 16 16"
   version="1.1"
   id="svg5"
   sodipodi:docname="sc_resetattributes.svg"
   inkscape:version="0.92.1 r15371"
   inkscape:export-filename="/home/matthias/GIT/icons/sifr_svg/sc_resetattributes.png"
   inkscape:export-xdpi="96"
   inkscape:export-ydpi="96">
  <defs
     id="defs9" />
  <sodipodi:namedview
     pagecolor="#ffffff"
     bordercolor="#666666"
     borderopacity="1"
     objecttolerance="10"
     gridtolerance="10"
     guidetolerance="10"
     inkscape:pageopacity="0"
     inkscape:pageshadow="2"
     inkscape:window-width="1920"
     inkscape:window-height="1007"
     id="namedview7"
     showgrid="true"
     inkscape:zoom="16"
     inkscape:cx="3.9649016"
     inkscape:cy="-7.1446187"
     inkscape:window-x="0"
     inkscape:window-y="44"
     inkscape:window-maximized="1"
     inkscape:current-layer="svg5">
    <inkscape:grid
       type="xygrid"
       id="grid4486" />
  </sodipodi:namedview>
  <metadata
     id="metadata7838">
    <rdf:RDF>
      <cc:Work
         rdf:about="">
        <dc:format>image/svg+xml</dc:format>
        <dc:type
           rdf:resource="http://purl.org/dc/dcmitype/StillImage" />
        <dc:title />
        <cc:license
           rdf:resource="http://creativecommons.org/licenses/by-sa/4.0/" />
        <dc:rights>
          <cc:Agent>
            <dc:title>The Document Foundation</dc:title>
          </cc:Agent>
        </dc:rights>
        <dc:contributor>
          <cc:Agent>
            <dc:title>Matthias Freund</dc:title>
          </cc:Agent>
        </dc:contributor>
      </cc:Work>
      <cc:License
         rdf:about="http://creativecommons.org/licenses/by-sa/4.0/">
        <cc:permits
           rdf:resource="http://creativecommons.org/ns#Reproduction" />
        <cc:permits
           rdf:resource="http://creativecommons.org/ns#Distribution" />
        <cc:requires
           rdf:resource="http://creativecommons.org/ns#Notice" />
        <cc:requires
           rdf:resource="http://creativecommons.org/ns#Attribution" />
        <cc:permits
           rdf:resource="http://creativecommons.org/ns#DerivativeWorks" />
        <cc:requires
           rdf:resource="http://creativecommons.org/ns#ShareAlike" />
      </cc:License>
    </rdf:RDF>
  </metadata>
  <path
     style="color:#000000;font-style:normal;font-variant:normal;font-weight:normal;font-stretch:normal;font-size:medium;line-height:normal;font-family:sans-serif;text-indent:0;text-align:start;text-decoration:none;text-decoration-line:none;text-decoration-style:solid;text-decoration-color:#000000;letter-spacing:normal;word-spacing:normal;text-transform:none;writing-mode:lr-tb;direction:ltr;baseline-shift:baseline;text-anchor:start;white-space:normal;clip-rule:nonzero;display:inline;overflow:visible;visibility:visible;opacity:1;isolation:auto;mix-blend-mode:normal;color-interpolation:sRGB;color-interpolation-filters:linearRGB;solid-color:#000000;solid-opacity:1;fill:#555753;fill-opacity:1;fill-rule:nonzero;stroke:none;stroke-width:2;stroke-linecap:butt;stroke-linejoin:miter;stroke-miterlimit:4;stroke-dasharray:none;stroke-dashoffset:0;stroke-opacity:1;marker:none;filter:url(#filter8750);color-rendering:auto;image-rendering:auto;shape-rendering:auto;text-rendering:auto;enable-background:accumulate"
     d="m 3,3 v 2 l 6.49805,2.397e-4 c 0.42816,1.58e-5 0.6075,0.28101 0.48242,0.73243 l -0.35156,1.26757 H 4.39062 c -1.83852,0 -3.13099,1.34261 -3.50585,2.74024 C 0.69733,10.43929 0.7089,11.21735 1.12109,11.89478 1.53328,12.5722 2.37493,13.00024 3.2832,13.00024 H 9 v -2 C 9,9.8922397 9.892,9.0002397 11,9.0002397 h 0.15039 l 0.75781,-2.73242 c 0.43468,-1.56878 -0.72996,-3.26758 -2.41015,-3.26758 z M 4.39062,9.0002397 H 9.07617 L 8.52148,11.00024 H 3.2832 c -0.39787,0 -0.40896,-0.0719 -0.45312,-0.14453 -0.0442,-0.0726 -0.0945,-0.29451 -0.0137,-0.5957 0.16156,-0.6023703 0.7295,-1.2597703 1.57421,-1.2597703 z"
     id="path11643-3-5-9"
     inkscape:export-filename="/home/matthias/GIT/icons/exported-sifr/cmd/sc_resetattributes.png"
     inkscape:export-xdpi="89"
     inkscape:export-ydpi="89"
     inkscape:connector-curvature="0"
     sodipodi:nodetypes="ccsccsccscssccsccccsccsc" />
  <path
     style="display:inline;opacity:1;fill:#555753;fill-opacity:1;fill-rule:nonzero;stroke:none;stroke-width:2;stroke-linecap:round;stroke-linejoin:miter;stroke-miterlimit:4;stroke-dasharray:none;stroke-dashoffset:4.5999999;stroke-opacity:1;filter:url(#filter8750)"
     d="M 11,9.9999997 C 10.446,9.9999997 10,10.446 10,11 v 4 c 0,0.554 0.446,1 1,1 h 4 c 0.554,0 1,-0.446 1,-1 V 11 C 16,10.446 15.554,9.9999997 15,9.9999997 Z m 0,1.0002403 h 1 L 13,12 14,11 h 1 v 1 l -1,1 1,0.99976 v 1 H 14 L 13,14 12,15 h -1 v -1 l 1,-1 -1,-0.99976 z"
     id="rect8463-3-1-2"
     inkscape:connector-curvature="0"
     sodipodi:nodetypes="sssssssssccccccccccccccccc"
     inkscape:export-filename="/home/matthias/GIT/icons/exported-sifr/cmd/sc_resetattributes.png"
     inkscape:export-xdpi="89"
     inkscape:export-ydpi="89" />
  <rect
     style="display:inline;opacity:1;fill:#555753;fill-opacity:1;fill-rule:evenodd;stroke:none;stroke-width:2;stroke-linecap:round;stroke-linejoin:round;stroke-miterlimit:4;stroke-dasharray:none;stroke-opacity:1;paint-order:normal;filter:url(#filter8750)"
     id="rect8959"
     width="8"
     height="2"
     x="1"
     y="14.000001" />
</svg>
